ui/StatusQ/src/assets/img/icons/close.svg

<svg fill="none" height="24" viewBox="0 0 24 24" width="24" xmlns="http://www.w3.org/2000/svg"><path d="m16.4697 17.5303c.2929.2929.7677.2929 1.0606 0s.2929-.7677 0-1.0606l-4.1161-4.1161c-.1952-.1953-.1952-.5119 0-.7072l4.1161-4.11607c.2929-.29289.2929-.76777 0-1.06066s-.7677-.29289-1.0606 0l-4.1161 4.11613c-.1953.1952-.5119.1952-.7072 0l-4.11607-4.11613c-.29289-.29289-.76777-.29289-1.06066 0s-.29289.76777 0 1.06066l4.11613 4.11607c.1952.1953.1952.5119 0 .7072l-4.11613 4.1161c-.29289.2929-.29289.7677 0 1.0606s.76777.2929 1.06066 0l4.11607-4.1161c.1953-.1952.5119-.1952.7072 0z" fill="#000"/></svg>

<svg width="24" height="24" viewBox="0 0 24 24" fill="none" xmlns="http://www.w3.org/2000/svg">
<path d="M16.4697 17.5303C16.7626 17.8232 17.2374 17.8232 17.5303 17.5303C17.8232 17.2374 17.8232 16.7626 17.5303 16.4697L13.4142 12.3536C13.219 12.1583 13.219 11.8417 13.4142 11.6464L17.5303 7.53033C17.8232 7.23744 17.8232 6.76256 17.5303 6.46967C17.2374 6.17678 16.7626 6.17678 16.4697 6.46967L12.3536 10.5858C12.1583 10.781 11.8417 10.781 11.6464 10.5858L7.53033 6.46967C7.23744 6.17678 6.76256 6.17678 6.46967 6.46967C6.17678 6.76256 6.17678 7.23744 6.46967 7.53033L10.5858 11.6464C10.781 11.8417 10.781 12.1583 10.5858 12.3536L6.46967 16.4697C6.17678 16.7626 6.17678 17.2374 6.46967 17.5303C6.76256 17.8232 7.23744 17.8232 7.53033 17.5303L11.6464 13.4142C11.8417 13.219 12.1583 13.219 12.3536 13.4142L16.4697 17.5303Z" fill="black"/>
</svg>
